!!!!SEGMENT: pl-gd--ee-1638--006-011_marenzio-luca--il-quinto-libro-de-madrigalia-a-cinque-voci-ben-puote-ella-sparire.krn
!!!cenid: 15xx:893
!!!COM: Marenzio, Luca
!!!COM-rismID:
!!!CDT: ~1553-1599/08/22
!!!CNT: Italian
!!!GTL: Il Quinto libro de madrigalia a cinque voci
!!!OTL: Ben puote ella sparire
!!!OMV: 011
!!!PDT: 1585
!!!AGN:
!!!SMS-siglum: PL-GD
!!!SMS-shelfmark: Ee 1638
!!!SMS-variant:
!!!SMS-altvar:
!!!SMS-shelfwork: 006-011 G
!!!NIFC-rismSourceID: 990039296
!!!NIFC-islandoraID: pl-gd:57883
!!!URL-pdf-islandora: https://repozytorium.nifc.pl/islandora/object/pl-gd%3A57883/datastream/PDF/view
!!!URL-scan: https://polish.musicsources.pl/pl/lokalizacje/galeria/klocki-introligatorskie/655 @EN{Scan on Polish Music Herritage in Open Access Website} @PL{Skany w portalu Dziedzictwo Muzyki Polskiej w otwartym dostępie}
!!!ONB-nifc:
!!!AIN: 1 alto 1 bass  1 soprn 1 tenor 1 vox
!!!key: d
**kern	**text	**kern	**text	**kern	**text	**kern	**text	**kern	**text
*part5	*part5	*part4	*part4	*part3	*part3	*part2	*part2	*part1	*part1
*staff5	*staff5	*staff4	*staff4	*staff3	*staff3	*staff2	*staff2	*staff1	*staff1
*I"QVINTO	*	*I"BASSO	*	*I"TENORE	*	*I"ALTO	*	*I"CANTO	*
*I'V	*	*I'B	*	*I'T	*	*I'A	*	*I'S	*
*ICvox	*	*ICvox	*	*ICvox	*	*ICvox	*	*ICvox	*
*Ivox	*	*Ibass 	*	*Itenor	*	*Ialto	*	*Isoprn	*
*clefC4	*	*clefF4	*	*clefC4	*	*clefC3	*	*clefC1	*
*k[]	*	*k[]	*	*k[]	*	*k[]	*	*k[]	*
*d:	*	*d:	*	*d:	*	*d:	*	*d:	*
*M2/1	*	*M2/1	*	*M2/1	*	*M2/1	*	*M2/1	*
*met(C|)	*	*met(C|)	*	*met(C|)	*	*met(C|)	*	*met(C|)	*
=1-	=1-	=1-	=1-	=1-	=1-	=1-	=1-	=1-	=1-
!	!	!	!	!	!	!	!	!LO:TX:a:i:t=Seconda parte	!
!LO:TX:a:i:t=Seconda parte	!	!	!	!LO:TX:a:i:t=Seconda parte	!	!LO:TX:a:i:t=Seconda parte	!	!LO:TX:b:i:t=Ben puote ella	!
1B	Ben	1E	BEn	1G#X	Ben	1e	BEn	0r	.
1d	po-	1D	po-	1A	po-	1f#X	po-	.	.
=2-	=2-	=2-	=2-	=2-	=2-	=2-	=2-	=2-	=2-
2d\	-te el-	2G\	-te el-	2B\	-te el-	2g\	-te el-	1r	.
4c\	-la	4A\	-la	4A/	-la	4e\	-la	.	.
4B\	ſpa-	4E\	ſpa-	4G#X/	ſpa-	4e\	ſpa-	.	.
2A/	-ri-	2F\	-ri-	2A/	-ri-	2d\	-ri-	2r	.
4G#X/	-re	4E\	-re	4B\	-re	4e\	-re	4r	.
4r	.	4r	.	4r	.	4r	.	4b\	A
=3-	=3-	=3-	=3-	=3-	=3-	=3-	=3-	=3-	=3-
2r	.	0r	.	1r	.	4r	.	4cc\	me
.	.	.	.	.	.	4e\	A	4g/	di-
4r	.	.	.	.	.	4fny\	me	4a\	-nan-
4e\	A	.	.	.	.	4c/	di-	4e/	-zi
4f\	me	.	.	4r	.	4d\	-nan-	1r	.
4c\	di-	.	.	4e\	A	4A/	-zi	.	.
4d\	-nan-	.	.	4f\	me	4r	.	.	.
!LO:SIC:v:t=custos f	!	!	!	!	!	!	!	!	!
*	*	*	*	*	*	*	*ij	*	*
4A/	-zi	.	.	4c\	di-	4e\	A	.	.
!LO:LB:g=original	!	!	!	!	!	!	!	!	!
=4-	=4-	=4-	=4-	=4-	=4-	=4-	=4-	=4-	=4-
2r	.	2r	.	4d\	-nan-	4f\	me	2r	.
!	!	!	!	!	!	!LO:SIC:v:t=custos d	!	!	!
.	.	.	.	4A/	-zi	4c/	di-	.	.
!	!	!	!	!LO:SIC:v:t=custos d	!	!LO:LB:g=original	!	!	!
1f	com'-	1D	com'-	2r	.	4d\	-nan-	1a	Com'-
.	.	.	.	.	.	4A/	-zi	.	.
!	!	!	!	!LO:LB:g=original	!	!	!	!	!
.	.	.	.	2d\	Com'-	1r	.	.	.
4d\	-au-	4G\	-au-	4B\	-au-	.	.	4g/	-au-
!	!	!	!	!	!	!	!	!LO:SIC:v:t=custos f	!
4e\	-gel-	4E\	-gel-	4c\	-gel'-	.	.	4g/	-gel-
!	!	!	!	!	!	!	!	!LO:LB:g=original	!
*	*	*	*	*	*	*	*Xij	*	*
=5-	=5-	=5-	=5-	=5-	=5-	=5-	=5-	=5-	=5-
2c\	-lin	2F\	-lin	1A	-in	2r	.	2f/	-lin
1A	che'l	1F	che'l	.	.	1a	che'l-	2c/	che'l
.	.	.	.	1r	.	.	.	2d/	dur
2B\	dur'	1E\	dur'-	.	.	1g\	-dar'	1e/	ar-
=6-	=6-	=6-	=6-	=6-	=6-	=6-	=6-	=6-	=6-
2c#X\	ar-	.	.	2r	.	.	.	.	-cier'-
!	!	!LO:SIC:v:t=custos C	!	!	!	!	!	!	!
1d	-cie-	1D	-ar-	2A/	che'l	1f	ar-	2f/	-ha
.	.	.	.	2B\	dur'-	.	.	1g	ſcor-
!	!	!LO:LB:g=original	!	!	!	!	!	!	!
2Gny/	-ro	1C/	-cier'-	2c\	-ar	1e\	-cier	.	.
=7-	=7-	=7-	=7-	=7-	=7-	=7-	=7-	=7-	=7-
2r	.	.	.	2c\	cier'-	.	.	2a\	.
2G/	ha-	2BB/	-ha	2d\	-ha-	2d\	ha	2.b\	.
*	*	*	*	*	*	*lig	*	*	*
4G/	-ſcor-	2.C/	ſcor-	0e	-ſcor-	1c	-ſcor-	.	.
4E/	.	.	.	.	.	.	.	4a\	.
2.e\	.	.	.	.	.	.	.	2.a\	.
.	.	4D/	.	.	.	.	.	.	.
=8-	=8-	=8-	=8-	=8-	=8-	=8-	=8-	=8-	=8-
.	.	1E	.	.	.	1B	.	.	.
8d\	.	.	.	.	.	.	.	8g#X/	.
8cny\	.	.	.	.	.	.	.	8f#X/	.
2B\	.	.	.	.	.	.	.	2g#X/	.
*	*	*	*	*	*	*Xlig	*	*	*
4c#X\	.	2AA/	-to	1e	-te	0A	-te	2a\	-to
2d\	.	.	.	.	.	.	.	.	.
.	.	2A\	Rat-	.	.	.	.	2e/	Rat-
!LO:SIC:v:t=custos d	!	!	!	!	!	!	!	!	!
4c#X\	.	.	.	.	.	.	.	.	.
!LO:LB:g=original	!	!	!	!	!	!	!	!	!
=9-	=9-	=9-	=9-	=9-	=9-	=9-	=9-	=9-	=9-
1d	-to	4D/	-ti	0r	.	.	.	4fny/	-to
.	.	4E\	ver	.	.	.	.	4gny/	ver
.	.	4F\	gl'al-	.	.	.	.	4a\	gl' al-
!	!	!	!	!	!	!	!	!LO:SIC:v:t=custos cc	!
.	.	4G\	-ti	.	.	.	.	4b\	-ti
!	!	!	!	!	!	!	!	!LO:LB:g=original	!
1r	.	4A\	boſ-	.	.	2r	.	4cc\	boſ-
.	.	4G\	-chi a	.	.	.	.	4b\	-chi a
.	.	4A\	vo-	.	.	2e\	Rat-	4cc\	vo-
.	.	4B\	-lar	.	.	.	.	4dd\	-lar
=10-	=10-	=10-	=10-	=10-	=10-	=10-	=10-	=10-	=10-
0r	.	2.c\	pren-	1r	.	4A/	-ti	2.ee\	pren-
.	.	.	.	.	.	4B/	ver	.	.
.	.	.	.	.	.	4c/	gl'al-	.	.
.	.	4B\	.	.	.	4d\	-ti	4dd\	.
.	.	1A	.	2r	.	4e\	boſ-	1.cc	.
.	.	.	.	.	.	4d\	-chi a	.	.
.	.	.	.	2c\	Ma	4e\	vo-	.	.
!	!	!	!	!	!	!LO:SIC:v:t=custos g	!	!	!
.	.	.	.	.	.	4f\	-lar	.	.
!	!	!	!	!	!	!LO:LB:g=original	!	!	!
=11-	=11-	=11-	=11-	=11-	=11-	=11-	=11-	=11-	=11-
!	!	!LO:SIC:v:t=custos C	!	!	!	!	!	!	!
2r	.	1G	-de	2e\	l'a-	1g	pren-	.	.
2G/	Ma	.	.	2d\	-li	.	.	4b\	-de
.	.	.	.	.	.	.	.	4b\	Ma
!	!	!LO:LB:g=original	!	!	!	!	!	!	!
2A/	l'a-	2r	.	4c\	del	2e\	-de	2cc\	l'a-
!	!	!	!	!LO:SIC:v:t=custos e	!	!	!	!	!
.	.	.	.	4d\	pen-	.	.	.	.
!	!	!	!	!LO:LB:g=original	!	!	!	!	!
2cny\	-li	2C/	Ma	2e\	-ſier	4r	.	2g/	-li
.	.	.	.	.	.	4e\	Ma	.	.
=12-	=12-	=12-	=12-	=12-	=12-	=12-	=12-	=12-	=12-
4B\	del	2E\	l'a-	2r	.	2g\	l'a-	2r	.
4c\	pen-	.	.	.	.	.	.	.	.
2d\	-ſier	2D/	-li	2F/	Ma	2f\	-li	2a\	Ma
2r	.	4C/	del	2A/	l'a-	4e\	del	2cc\	l'a-
.	.	4D/	pen-	.	.	4f\	pen-	.	.
2e\	Ma	2E\	-ſier	2Gny/	-li	2g\	-ſier	2b\	-li
=13-	=13-	=13-	=13-	=13-	=13-	=13-	=13-	=13-	=13-
2f\	l'a-	2r	.	4F/	del	2r	.	4a\	del
.	.	.	.	4G/	pen-	.	.	4b\	pen-
2e\	-li	2AA/	Ma	2A/	-ſier	2c/	Ma	2cc\	-ſier
4E/	del	2C/	l'a-	2G/	che	2e\	l'a-	1r	.
4F/	pen-	.	.	.	.	.	.	.	.
2G/	-ſier	2BB/	-li	4G/	fia	2d\	-li	.	.
.	.	.	.	4D/	ch'a-	.	.	.	.
=14-	=14-	=14-	=14-	=14-	=14-	=14-	=14-	=14-	=14-
2A/	che	4AA/	del	2F/	-uan-	4c/	del	2cc\	che
.	.	4BB/	pen-	.	.	4d\	pen-	.	.
4G/	fa	2C/	-ſier	2E/	-zi	2e\	-ſier	2.cc\	fià
!LO:SIC:v:t=custos d	!	!	!	!	!	!	!	!	!
4c\	ch'a	.	.	.	.	.	.	.	.
!LO:LB:g=original	!	!	!	!	!	!	!	!	!
1d	uan-	2G\	che	2r	.	2g\	che	.	.
!	!	!	!	!	!	!	!	!LO:SIC:v:t=custos b	!
.	.	.	.	.	.	.	.	4b\	ch'a.
!	!	!	!	!	!	!	!	!LO:LB:g=original	!
.	.	4G\	fia	2d\	che	4g\	fia	2.b\	uan-
.	.	4D/	ch'a-	.	.	4f\	ch'a-	.	.
=15-	=15-	=15-	=15-	=15-	=15-	=15-	=15-	=15-	=15-
*	*	*lig	*	*	*	*	*	*	*
2D/	-zi	1F	-uan-	2d\	fia	4f\	-uan-	.	.
.	.	.	.	.	.	8e\	.	4a\	.
!	!	!	!	!	!	!LO:SIC:v:t=custos c	!	!	!
.	.	.	.	.	.	8d\	.	.	.
!	!	!	!	!	!	!LO:LB:g=original	!	!	!
2r	.	.	.	2A/	ch'a-	4c/	.	2.a\	.
.	.	.	.	.	.	4d\	.	.	.
1r	.	1E	.	2c\	-uan-	1e	.	.	.
.	.	.	.	.	.	.	.	8g#X/	.
.	.	.	.	.	.	.	.	8f#X/	.
.	.	.	.	2B\	-zi	.	.	2g#X/	.
*	*	*Xlig	*	*	*	*	*	*	*
=16-	=16-	=16-	=16-	=16-	=16-	=16-	=16-	=16-	=16-
2r	.	1AA	-zi	2.c\	chi	1e	-zi	1a	-zi
1e	lun-	.	.	.	.	.	.	.	.
!	!	!	!	!LO:SIC:v:t=custos A	!	!	!	!	!
.	.	.	.	4B\	.	.	.	.	.
!	!	!	!	!LO:LB:g=original	!	!	!	!	!
.	.	2r	.	2A/	.	2c/	Chi	1a	Chi
!	!	!LO:SIC:v:t=custos A	!	!	!	!	!	!	!
2A/	-go	2A\	chi	2c#X\	lun-	2e\	lun-	.	.
!	!	!LO:LB:g=original	!	!	!	!	!	!	!
=17-	=17-	=17-	=17-	=17-	=17-	=17-	=17-	=17-	=17-
4a\	cal-	2A\	lun-	2c#yX\	-go	2e\	-go	1.a	lun-
4g\	.	.	.	.	.	.	.	.	.
4f\	.	2D/	-go	2d\	cal-	4a\	cal-	.	.
4e\	.	.	.	.	.	4g\	.	.	.
1d	.	4d\	cal-	2D/	-le	4f\	.	.	.
.	.	4c\	.	.	.	4e\	.	.	.
.	.	4B\	.	2G/	lun-	4d\	.	2gny/	-go
.	.	4A\	.	.	.	4c/	.	.	.
=18-	=18-	=18-	=18-	=18-	=18-	=18-	=18-	=18-	=18-
2d\	-le et	4G\	.	2G/	-go	4B/	.	1b	cal-
.	.	4F\	.	.	.	4A/	.	.	.
1e	aſ-	4E\	.	4g\	cal-	1G	.	.	.
.	.	4D/	.	4f\	.	.	.	.	.
.	.	4C/	.	4e\	.	.	.	1cc	-le
.	.	4BB/	.	4d\	.	.	.	.	.
2e\	-pr'e	4AA/	.	4cny\	.	2A/	-le et	.	.
.	.	4GG/	.	4B\	.	.	.	.	.
=19-	=19-	=19-	=19-	=19-	=19-	=19-	=19-	=19-	=19-
2f\	pia-	1FF	.	4A/	.	2.c/	aſ-	2r	.
.	.	.	.	4G/	.	.	.	.	.
2c\	-no	.	.	2F/	.	.	.	2a\	[Et]
.	.	.	.	.	.	4d\	.	.	.
*	*	*	*	*	*	*lig	*	*	*
2r	.	1C	-le et	1G	-le et	1e	.	0g	aſ-
2G/	et	.	.	.	.	.	.	.	.
=20-	=20-	=20-	=20-	=20-	=20-	=20-	=20-	=20-	=20-
1B	aſ-	1BB	aſ-	1G	aſ-	1d	.	.	.
*	*	*	*	*	*	*Xlig	*	*	*
2e\	-pro e	2C/	-pr'e	1E	-pro e	2c/	-pr'e	2g/	-pro e
!LO:SIC:v:t=custos b	!	!	!	!	!	!LO:SIC:v:t=custos e	!	!	!
1e\	pia-	1E\	pia-	.	.	1B/	pia-	1g#X\	pian'-
!LO:LB:g=original	!	!	!	!	!	!LO:LB:g=original	!	!	!
=21-	=21-	=21-	=21-	=21-	=21-	=21-	=21-	=21-	=21-
.	-n' er	.	.	2B\	pian'-	.	.	.	.
!	!	!	!	!LO:SIC:v:t=custos A	!	!	!	!LO:SIC:v:t=custos a	!
2B\	cor-	2E\	-n'et	2E/	-et	2e\	-n'et	2g#yX/	-et
!	!	!	!	!LO:LB:g=original	!	!	!	!LO:LB:g=original	!
2c\	-te	2AA/	cor-	2A/	cor-	2e\	cor-	2a\	cor-
!	!	!LO:SIC:v:t=custos G	!	!	!	!	!	!	!
2d\	Co-	2GG/	-te	2D/	-to	2g\	-te	2b\	-to
!	!	!LO:LB:g=original	!	!	!	!	!	!	!
=22-	=22-	=22-	=22-	=22-	=22-	=22-	=22-	=22-	=22-
2B\	-ſi	2G\	Co-	00r	.	4r	.	00r	.
.	.	.	.	.	.	2d\	Co-	.	.
2B\	cal-	2G\	-ſi	.	.	.	.	.	.
.	.	.	.	.	.	4e\	-ſi	.	.
2B\	-do	2G\	cal-	.	.	2d\	cal-	.	.
4A/	de-	4F#X\	-do	.	.	4d\	-do	.	.
4B\	-fio	4G\	de-	.	.	4e\	de-	.	.
=23-	=23-	=23-	=23-	=23-	=23-	=23-	=23-	=23-	=23-
2.c\	l'af-	2.A\	-ſio	.	.	2.f\	-fio	.	.
4B\	-fret-	4G\	l'af-	.	.	4e\	l'af-	.	.
4A/	-ta e	4Fny\	-fret-	.	.	4d\	-fret-	.	.
4G/	ſten-	4E\	-ta e	.	.	4c/	-ta e	.	.
2A/	-de	2F\	ſten-	.	.	2d\	ſten-	.	.
=24-	=24-	=24-	=24-	=24-	=24-	=24-	=24-	=24-	=24-
2.B\	.	1E	-de	2G/	Co-	1e	-de	2b\	Co-
.	.	.	.	2G/	-ſi	.	.	2b\	-ſi
4c\	.	.	.	.	.	.	.	.	.
1d	.	1r	.	2G/	cal-	1r	.	2b\	ca'-
.	.	.	.	4F#X/	-do	.	.	4a\	-do
.	.	.	.	4G/	de-	.	.	4b\	de-
=25-	=25-	=25-	=25-	=25-	=25-	=25-	=25-	=25-	=25-
0r	.	0r	.	2.A/	-ſio	2c/	Co-	2.cc\	-ſio
.	.	.	.	.	.	2c/	-ſi	.	.
.	.	.	.	4G/	l'af-	.	.	4b\	l'af-
.	.	.	.	4Fny/	-fret-	2c/	cal-	4a\	-fret-
.	.	.	.	4E/	-ta et	.	.	4gny\	-ta et
.	.	.	.	2F/	ſten0-	4c/	-do	2a\	ſten-
!	!	!	!	!	!	!LO:SIC:v:t=custos e	!	!	!
.	.	.	.	.	.	4A/	de-	.	.
!	!	!	!	!	!	!LO:LB:g=original	!	!	!
=26-	=26-	=26-	=26-	=26-	=26-	=26-	=26-	=26-	=26-
2B\	Co-	2G\	Co-	1G	-de	1e	-fio	1b	-de
2B\	-ſi	2G\	-ſi	.	.	.	.	.	.
!LO:SIC:v:t=custos A	!	!	!	!	!	!	!	!	!
2B\	cal-	2G\	cal-	1r	.	1r	.	1r	.
!LO:LB:g=original	!	!	!	!	!	!	!	!	!
4A/	-do	4F#X\	-do	.	.	.	.	.	.
4B\	de-	4G\	de-	.	.	.	.	.	.
=27-	=27-	=27-	=27-	=27-	=27-	=27-	=27-	=27-	=27-
1G	-fio	1C	-ſio	2c\	Co-	2e\	Co-	2g/	Co-
.	.	.	.	2c\	-ſi	2e\	-ſi	2g/	-ſi
1r	.	1r	.	2c\	cal-	2e\	cal-	2g/	cal-
.	.	.	.	4d\	-do	4d\	-do	4f#X/	-do
!	!	!	!	!LO:SIC:v:t=custos F	!	!	!	!LO:SIC:v:t=custos a	!
.	.	.	.	4c\	de-	4e\	de-	4g/	de-
!	!	!	!	!LO:LB:g=original	!	!	!	!LO:LB:g=original	!
=28-	=28-	=28-	=28-	=28-	=28-	=28-	=28-	=28-	=28-
2r	.	2r	.	1F	-ſio	2.f\	-fio	2.a\	-ſio
!	!	!LO:SIC:v:t=custos D	!	!	!	!	!	!	!
2F/	l'af-	2D/	l'af-	.	.	.	.	.	.
.	.	.	.	.	.	4e\	l'af-	4g/	l'af-
!	!	!LO:LB:g=original	!	!	!	!	!	!	!
2.A/	-fret-	2D/	-fret-	2r	.	2d\	-fret-	2fny/	-fret-
.	.	2AA/	-ta e	2A/	l'af-	2c#X/	-ta e	2e/	-ta et
4A/	-ta e-	.	.	.	.	.	.	.	.
=29-	=29-	=29-	=29-	=29-	=29-	=29-	=29-	=29-	=29-
2.F/	-ſten-	0D	ſten-	2A/	-fret-	0d	ſten-	0f	ſten-
.	.	.	.	2A/	-ta et	.	.	.	.
4E/	.	.	.	.	.	.	.	.	.
1D	.	.	.	1A	ſten-	.	.	.	.
=30-	=30-	=30-	=30-	=30-	=30-	=30-	=30-	=30-	=30-
00E	-de.	00AA	-de.	00A/	-de.	00c#X/	-de.	00e	-de.
==	==	==	==	==	==	==	==	==	==
*-	*-	*-	*-	*-	*-	*-	*-	*-	*-
!!!system-decoration: [(s1,s2,s3,s4,s5)]
!!!ENC: Andrzej Gręziak
!!!END: 2022-06-09
!!!ENC: Jan Barakat
!!!END: 2022-07-19
